app/assets/images/icons/facebookIcon.svg

<svg viewBox="0 0 63 63" fill="none" xmlns="http://www.w3.org/2000/svg">
  <path d="M62.4815 13.1341C62.2967 9.84842 60.9082 6.74584 58.5811 4.4188C56.254 2.09177 53.1514 0.703301 49.8656 0.518508C37.6318 -0.172836 25.3689 -0.172836 13.1351 0.518508C9.8493 0.703405 6.74664 2.09189 4.41946 4.41888C2.09228 6.74588 0.703601 9.8484 0.51852 13.1341C-0.17284 25.3679 -0.17284 37.6308 0.51852 49.8646C0.703631 53.1503 2.09232 56.2528 4.41949 58.5798C6.74667 60.9068 9.84931 62.2953 13.1351 62.4802C25.3688 63.1733 37.6319 63.1733 49.8656 62.4802C53.1513 62.2954 56.254 60.9069 58.5811 58.5799C60.9081 56.2528 62.2967 53.1503 62.4815 49.8646C63.1728 37.6308 63.1728 25.3679 62.4815 13.1341Z" fill="white"/>
  <path d="M36.2 26.3299V32.4199H41.66C42.08 32.4199 42.29 32.8399 42.29 33.2599L41.45 37.2499C41.45 37.4599 41.03 37.6699 40.82 37.6699H36.2V52.9999H29.9V37.8799H26.33C25.91 37.8799 25.7 37.6699 25.7 37.2499V33.2599C25.7 32.8399 25.91 32.6299 26.33 32.6299H29.9V25.6999C29.9 22.1299 32.63 19.3999 36.2 19.3999H41.87C42.29 19.3999 42.5 19.6099 42.5 20.0299V25.0699C42.5 25.4899 42.29 25.6999 41.87 25.6999H36.83C36.41 25.6999 36.2 25.9099 36.2 26.3299Z" stroke="#F18CE7" stroke-width="3.83213" stroke-miterlimit="10" stroke-linecap="round"/>
  <path d="M38.3 53H25.7C15.2 53 11 48.8 11 38.3V25.7C11 15.2 15.2 11 25.7 11H38.3C48.8 11 53 15.2 53 25.7V38.3C53 48.8 48.8 53 38.3 53Z" stroke="#F18CE7" stroke-width="3.83213" stroke-linecap="round" stroke-linejoin="round"/>
</svg>

<svg version="1.2" xmlns="http://www.w3.org/2000/svg" viewBox="0 0 63 63" width="63" height="63"><style>.a{fill:#fff}.b{fill:none;stroke:#f18ce7;stroke-linecap:round;stroke-width:3.8}.c{fill:none;stroke:#f18ce7;stroke-linecap:round;stroke-linejoin:round;stroke-width:3.4}</style><path class="a" d="m62.5 13.1c-0.2-3.3-1.6-6.4-3.9-8.7-2.3-2.3-5.4-3.7-8.7-3.9q-18.4-1-36.8 0c-3.3 0.2-6.4 1.6-8.7 3.9-2.3 2.3-3.7 5.4-3.9 8.7q-1 18.4 0 36.8c0.2 3.3 1.6 6.4 3.9 8.7 2.3 2.3 5.4 3.7 8.7 3.9q18.4 1 36.8 0c3.3-0.2 6.4-1.6 8.7-3.9 2.3-2.3 3.7-5.4 3.9-8.7q1-18.4 0-36.8z"/><path class="b" d="m36.2 26.3v6.1h5.5c0.4 0 0.6 0.4 0.6 0.9l-0.8 3.9c0 0.3-0.5 0.5-0.7 0.5h-4.6v15.3h-6.3v-15.1h-3.6q-0.6 0-0.6-0.7v-3.9q0-0.7 0.6-0.7h3.6v-6.9c0-3.6 2.7-6.3 6.3-6.3h5.7q0.6 0 0.6 0.6v5.1q0 0.6-0.6 0.6h-5.1q-0.6 0-0.6 0.6z"/><path class="c" d="m38.3 53h-12.6c-10.5 0-14.7-4.2-14.7-14.7v-12.6c0-10.5 4.2-14.7 14.7-14.7h12.6c10.5 0 14.7 4.2 14.7 14.7v12.6c0 10.5-4.2 14.7-14.7 14.7z"/></svg>
